svg/sqlalchemy.svg

<svg viewBox="0 0 20 20" xmlns="http://www.w3.org/2000/svg">
<rect width="100%" height="100%" fill="#333333"/>
<path d="M8.00352 15.8386C7.67229 15.7886 6.82373 15.588 6.12128 15.4065L4.84128 15.0677L5.49782 13.9273L6.15386 12.7869L5.6237 12.1663C4.87435 11.289 3.90683 9.36562 3.90041 8.74595C3.8935 7.29803 5.88187 5.19918 8.32142 4.07136C9.99831 3.29444 11.3306 3.27577 13.0011 4.01536L14.2604 4.57251L14.6252 4.07789C14.8236 3.80818 14.9895 3.45122 14.9895 3.29444C14.9895 3.13765 15.1553 3 15.3543 3C15.5532 3 15.7186 3.04993 15.7186 3.10639C15.7186 3.24451 14.254 6.74042 14.1611 6.82814C14.1212 6.86547 13.7233 6.69049 13.2726 6.43992C12 5.73159 10.4026 5.2617 9.16307 5.23044C6.27974 5.16138 5.27864 7.82484 7.31391 10.1551L8.02968 10.9764L9.98498 9.47854C12.1792 7.80571 12.431 7.76791 14.1414 8.8836C16.0631 10.1365 16.0962 12.0412 14.2401 14.0337C12.5963 15.8068 10.9071 16.2963 8.00352 15.8386ZM12.9221 13.9278C13.8763 13.2199 13.8102 11.9101 12.776 10.87C11.4767 9.56673 11.073 9.62319 8.78593 11.4276C6.51224 13.2194 6.49891 13.1508 9.21688 13.9716C11.0127 14.5227 12.1397 14.504 12.9221 13.9278Z" fill="white"/>
</svg>

<svg xmlns="http://www.w3.org/2000/svg" viewBox="0 0 20 20">
  <rect width="100%" height="100%" fill="#333"/>
  <path fill="#fff" d="M8 15.84c-.33-.05-1.18-.25-1.88-.43l-1.28-.34.66-1.14.65-1.14-.53-.62c-.75-.88-1.71-2.8-1.72-3.42 0-1.45 1.98-3.55 4.42-4.68 1.68-.78 3.01-.8 4.68-.05l1.26.55.37-.5c.2-.26.36-.62.36-.78 0-.15.17-.29.36-.29.2 0 .37.05.37.1 0 .14-1.47 3.64-1.56 3.73-.04.04-.44-.14-.89-.39a9.66 9.66 0 0 0-4.1-1.21c-2.89-.07-3.9 2.6-1.86 4.93l.72.82 1.95-1.5c2.2-1.67 2.45-1.71 4.16-.6 1.92 1.26 1.96 3.16.1 5.15-1.64 1.78-3.33 2.27-6.24 1.8Zm4.92-1.91c.96-.71.89-2.02-.14-3.06-1.3-1.3-1.7-1.25-4 .56-2.27 1.79-2.28 1.72.44 2.54 1.8.55 2.92.53 3.7-.04Z"/>
</svg>
